src/assets/filled/Edit.svg

<?xml version="1.0" encoding="UTF-8"?>
<svg width="24" height="24" viewBox="0 0 24 24" xmlns="http://www.w3.org/2000/svg">
 <path d="m16.19 2h-8.38c-3.64 0-5.81 2.17-5.81 5.81v8.37c0 3.65 2.17 5.82 5.81 5.82h8.37c3.64 0 5.81-2.17 5.81-5.81v-8.38c0.01-3.64-2.16-5.81-5.8-5.81zm-5.24 15.51c-0.29 0.29-0.84 0.57-1.24 0.63l-2.46 0.35c-0.09 0.01-0.18 0.02-0.27 0.02-0.41 0-0.79-0.14-1.06-0.41-0.33-0.33-0.47-0.81-0.39-1.34l0.35-2.46c0.06-0.41 0.33-0.95 0.63-1.24l4.46-4.46c0.08 0.21 0.16 0.42 0.27 0.66 0.1 0.21 0.21 0.43 0.33 0.63 0.1 0.17 0.21 0.33 0.3 0.45 0.11 0.17 0.24 0.33 0.32 0.42 0.05 0.07 0.09 0.12 0.11 0.14 0.25 0.3 0.54 0.58 0.79 0.79 0.07 0.07 0.11 0.11 0.13 0.12 0.15 0.12 0.3 0.24 0.43 0.33 0.16 0.12 0.32 0.23 0.49 0.32 0.2 0.12 0.42 0.23 0.64 0.34 0.23 0.1 0.44 0.19 0.65 0.26l-4.48 4.45zm6.42-6.42-0.92 0.93c-0.06 0.06-0.14 0.09-0.22 0.09-0.03 0-0.07 0-0.09-0.01-2.03-0.58-3.65-2.2-4.23-4.23-0.03-0.11 0-0.23 0.08-0.3l0.93-0.93c1.52-1.52 2.97-1.49 4.46 0 0.76 0.76 1.13 1.49 1.13 2.25-0.01 0.72-0.38 1.44-1.14 2.2z"/>
</svg>

<svg width="24" height="24" viewBox="0 0 24 24"  xmlns="http://www.w3.org/2000/svg">
<path d="M16.19 2H7.81C4.17 2 2 4.17 2 7.81V16.18C2 19.83 4.17 22 7.81 22H16.18C19.82 22 21.99 19.83 21.99 16.19V7.81C22 4.17 19.83 2 16.19 2ZM10.95 17.51C10.66 17.8 10.11 18.08 9.71 18.14L7.25 18.49C7.16 18.5 7.07 18.51 6.98 18.51C6.57 18.51 6.19 18.37 5.92 18.1C5.59 17.77 5.45 17.29 5.53 16.76L5.88 14.3C5.94 13.89 6.21 13.35 6.51 13.06L10.97 8.6C11.05 8.81 11.13 9.02 11.24 9.26C11.34 9.47 11.45 9.69 11.57 9.89C11.67 10.06 11.78 10.22 11.87 10.34C11.98 10.51 12.11 10.67 12.19 10.76C12.24 10.83 12.28 10.88 12.3 10.9C12.55 11.2 12.84 11.48 13.09 11.69C13.16 11.76 13.2 11.8 13.22 11.81C13.37 11.93 13.52 12.05 13.65 12.14C13.81 12.26 13.97 12.37 14.14 12.46C14.34 12.58 14.56 12.69 14.78 12.8C15.01 12.9 15.22 12.99 15.43 13.06L10.95 17.51ZM17.37 11.09L16.45 12.02C16.39 12.08 16.31 12.11 16.23 12.11C16.2 12.11 16.16 12.11 16.14 12.1C14.11 11.52 12.49 9.9 11.91 7.87C11.88 7.76 11.91 7.64 11.99 7.57L12.92 6.64C14.44 5.12 15.89 5.15 17.38 6.64C18.14 7.4 18.51 8.13 18.51 8.89C18.5 9.61 18.13 10.33 17.37 11.09Z" />
</svg>
